icon-themes/breeze_svg/cmd/sc_backgroundpatterncontroller.svg

<svg viewBox="0 0 16 16" xmlns="http://www.w3.org/2000/svg">/&gt;<path d="m8.0566406 2c-1.11502 0-2.0195312.89542-2.0195312 2v1.75l-4.0371094 4 4.2910156 4.25 5.7089844-5.65625-1.419922-1.40625-.503906-.5v-2.4375c0-1.10458-.9045014-2-2.0195314-2zm0 1c.55751 0 1.0097656.44772 1.0097656 1v1.4375l-1.3574218-1.34375-.6621094.65625v-.75c0-.55228.4522556-1 1.0097656-1zm-.3476562 2.5 2.8710936 2.84375c-2.9998599 3.39304-3.2922461-1.12688-7.1601561 1.40625zm4.7910156 3.5c-.29188 1.06405-1.020978 1.976614-1.335938 2.708984-.110209.21775-.164062.464336-.164062.728516 0 .86562.669 1.5625 1.5 1.5625s1.5-.69688 1.5-1.5625c0-.26418-.0773-.510766-.1875-.728516-.31496-.73237-1.02063-1.644934-1.3125-2.708984z" fill="#4d4d4d"/></svg>

<svg xmlns="http://www.w3.org/2000/svg" viewBox="0 0 16 16">
     />
 <path 
     style="fill:#4d4d4d" 
     d="M 8.0566406 2 C 6.9416206 2 6.0371094 2.89542 6.0371094 4 L 6.0371094 5.75 L 2 9.75 L 6.2910156 14 L 12 8.34375 L 10.580078 6.9375 L 10.076172 6.4375 L 10.076172 4 C 10.076172 2.89542 9.1716706 2 8.0566406 2 z M 8.0566406 3 C 8.6141506 3 9.0664062 3.44772 9.0664062 4 L 9.0664062 5.4375 L 7.7089844 4.09375 L 7.046875 4.75 L 7.046875 4 C 7.046875 3.44772 7.4991306 3 8.0566406 3 z M 7.7089844 5.5 L 10.580078 8.34375 C 7.5802181 11.73679 7.2878319 7.21687 3.4199219 9.75 L 7.7089844 5.5 z M 12.5 9 C 12.20812 10.06405 11.479022 10.976614 11.164062 11.708984 C 11.053853 11.926734 11 12.17332 11 12.4375 C 11 13.30312 11.669 14 12.5 14 C 13.331 14 14 13.30312 14 12.4375 C 14 12.17332 13.9227 11.926734 13.8125 11.708984 C 13.49754 10.976614 12.79187 10.06405 12.5 9 z "
     />
 </svg>
